svg/part/nose_line.svg

<?xml version="1.0" encoding="UTF-8"?>
<svg width="24px" height="24px" viewBox="0 0 24 24" version="1.1" xmlns="http://www.w3.org/2000/svg" xmlns:xlink="http://www.w3.org/1999/xlink">
    <title>nose_line</title>
    <g id="页面-1" stroke="none" stroke-width="1" fill="none" fill-rule="evenodd">
        <g id="Part" transform="translate(-432.000000, 0.000000)" fill-rule="nonzero">
            <g id="nose_line" transform="translate(432.000000, 0.000000)">
                 <path d="M24,0 L24,24 L0,24 L0,0 L24,0 Z M12.5934901,23.257841 L12.5819402,23.2595131 L12.5108777,23.2950439 L12.4918791,23.2987469 L12.4918791,23.2987469 L12.4767152,23.2950439 L12.4056548,23.2595131 C12.3958229,23.2563662 12.3870493,23.2590235 12.3821421,23.2649074 L12.3780323,23.275831 L12.360941,23.7031097 L12.3658947,23.7234994 L12.3769048,23.7357139 L12.4804777,23.8096931 L12.4953491,23.8136134 L12.4953491,23.8136134 L12.5071152,23.8096931 L12.6106902,23.7357139 L12.6232938,23.7196733 L12.6232938,23.7196733 L12.6266527,23.7031097 L12.609561,23.275831 C12.6075724,23.2657013 12.6010112,23.2592993 12.5934901,23.257841 L12.5934901,23.257841 Z M12.8583906,23.1452862 L12.8445485,23.1473072 L12.6598443,23.2396597 L12.6498822,23.2499052 L12.6498822,23.2499052 L12.6471943,23.2611114 L12.6650943,23.6906389 L12.6699349,23.7034178 L12.6699349,23.7034178 L12.678386,23.7104931 L12.8793402,23.8032389 C12.8914285,23.8068999 12.9022333,23.8029875 12.9078286,23.7952264 L12.9118235,23.7811639 L12.8776777,23.1665331 C12.8752882,23.1545897 12.8674102,23.1470016 12.8583906,23.1452862 L12.8583906,23.1452862 Z M12.1430473,23.1473072 C12.1332178,23.1423925 12.1221763,23.1452606 12.1156365,23.1525954 L12.1099173,23.1665331 L12.0757714,23.7811639 C12.0751323,23.7926639 12.0828099,23.8018602 12.0926481,23.8045676 L12.108256,23.8032389 L12.3092106,23.7104931 L12.3186497,23.7024347 L12.3186497,23.7024347 L12.3225043,23.6906389 L12.340401,23.2611114 L12.337245,23.2485176 L12.337245,23.2485176 L12.3277531,23.2396597 L12.1430473,23.1473072 Z" id="MingCute" fill-rule="nonzero"></path>
                <path d="M9.5,4 C9.5,3.44772 9.05228,3 8.5,3 C7.94772,3 7.5,3.44772 7.5,4 C7.5,5.82724 7.04443,7.67507 6.10557,9.55279 C5.65437,10.4552 5.01801,11.1536 4.31564,12.1216 C3.66521,13.0179 3,14.1126 3,15.5 C3,17.433 4.567,19 6.5,19 C7.07231,19 8.01211,18.6241 8.55279,18.8944 C8.95146,19.0938 9.20854,19.5539 9.50991,19.8735 C10.0291,20.4242 10.7741,21 12,21 C13.2259,21 13.9709,20.4242 14.4901,19.8735 C14.7847,19.561 15.0522,19.0919 15.4472,18.8944 C15.9879,18.6241 16.9277,19 17.5,19 C19.433,19 21,17.433 21,15.5 C21,14.1126 20.3348,13.0179 19.6844,12.1216 C18.982,11.1537 18.3456,10.4552 17.8944,9.55279 C16.9556,7.67507 16.5,5.82724 16.5,4 C16.5,3.44772 16.0523,3 15.5,3 C14.9477,3 14.5,3.44772 14.5,4 C14.5,6.17276 15.0444,8.32493 16.1056,10.4472 C16.6543,11.5448 17.518,12.5416 18.0656,13.2962 C18.6652,14.1224 19,14.7777 19,15.5 C19,16.3284 18.3284,17 17.5,17 C16.4837,17 15.5332,16.6153 14.5528,17.1056 C13.9114,17.4262 13.5129,17.9945 13.0349,18.5015 C12.7291,18.8258 12.4741,19 12,19 C11.5259,19 11.2709,18.8258 10.9651,18.5015 C10.4898,17.9974 10.0842,17.4241 9.44721,17.1056 C8.46675,16.6153 7.51632,17 6.5,17 C5.67157,17 5,16.3284 5,15.5 C5,14.7777 5.33479,14.1224 5.93436,13.2962 C6.48197,12.5415 7.34564,11.5448 7.89443,10.4472 C8.95557,8.32493 9.5,6.17276 9.5,4 Z" id="路径" fill="#09244B"></path>
            </g>
        </g>
    </g>
</svg>

<svg xmlns="http://www.w3.org/2000/svg" width="24" height="24"><g fill="none" fill-rule="nonzero"><path d="M24 0v24H0V0h24ZM12.593 23.258l-.011.002-.071.035-.02.004-.014-.004-.071-.035c-.01-.004-.019-.001-.024.005l-.004.01-.017.428.005.02.01.013.104.074.015.004.012-.004.104-.074.012-.016.004-.017-.017-.427c-.002-.01-.009-.017-.017-.018Zm.265-.113-.013.002-.185.093-.01.01-.003.011.018.43.005.012.008.007.201.093c.012.004.023 0 .029-.008l.004-.014-.034-.614c-.003-.012-.01-.02-.02-.022Zm-.715.002a.023.023 0 0 0-.027.006l-.006.014-.034.614c0 .012.007.02.017.024l.015-.002.201-.093.01-.008.004-.011.017-.43-.003-.012-.01-.01-.184-.092Z"/><path fill="#09244B" d="M9.5 4a1 1 0 0 0-2 0c0 1.827-.456 3.675-1.394 5.553-.452.902-1.088 1.6-1.79 2.569C3.666 13.018 3 14.112 3 15.5A3.5 3.5 0 0 0 6.5 19c.572 0 1.512-.376 2.053-.106.398.2.656.66.957.98.52.55 1.264 1.126 2.49 1.126 1.226 0 1.97-.576 2.49-1.126.295-.313.562-.782.957-.98.54-.27 1.48.106 2.053.106a3.5 3.5 0 0 0 3.5-3.5c0-1.387-.665-2.482-1.316-3.378-.702-.968-1.338-1.667-1.79-2.57C16.956 7.676 16.5 5.828 16.5 4a1 1 0 1 0-2 0c0 2.173.544 4.325 1.606 6.447.548 1.098 1.412 2.095 1.96 2.85.6.825.934 1.48.934 2.203a1.5 1.5 0 0 1-1.5 1.5c-1.016 0-1.967-.385-2.947.106-.642.32-1.04.888-1.518 1.395-.306.325-.56.499-1.035.499-.474 0-.73-.174-1.035-.498-.475-.505-.88-1.078-1.518-1.396-.98-.49-1.93-.106-2.947-.106A1.5 1.5 0 0 1 5 15.5c0-.722.335-1.378.934-2.204.548-.755 1.412-1.751 1.96-2.849C8.956 8.325 9.5 6.173 9.5 4Z"/></g></svg>
